X:0847
T:Johnie Blunt.
M:6/8
L:1/8
Q:3/8=120
I: ||
Z:Jack Campin * www.campin.me.uk * 2009
K:G
G|G2B A2 A|GAB A2A|G2d dec|B3 d2
d|def g>fe|dcB ABc|d2G GAB|A3 G2|]
<end>
<start>
